X: 23635
T: Limerick House
R: reel
M: 4/4
K: Cmajor
|:g^fga g=fed|cdec GFEe|f2fg fedc|(3BcB (3ABA GFEG|
g^fga g=fed|cdec GFED|CDEF GABd|1 cded cGEG:|2 cded cGEF||
|:GcBc ecBc|gcBc acBc|bg{a}gf afdc|BcdB edcA|
GcBc ecBc|gcBc acBc|bBaB gedc|1 BGAB cGEF:|2 BGAB c2G2||
f2fe fcAc|f2fe fcAc|g2{a}g^f gdBd|g2{a}g^f gbeg|
f2fe fcAc|fefg f2(3G,A,B,|CDEF GECF AFDE GEC2|
f2fe fcAc|f2fe fcAc|g2{a}g^f gdBd|gb(3ag^f gbeg|
f2fe fcAc|fefg f2(3G,A,B,|CDEF GABd|cded cGEG|

